X: 29206
T: New Custom House, The
R: reel
M: 4/4
K: Dmixolydian
|:ADDE FGAB|cAGE CEGE|AD~D2 FGAB|c2e^c dcAG|
ADdD (3EFG AB|cAGE CEGc|ADDE FGAB|cAGc AD~D2:|
|:Ad~d2 Adfd|eA (3B^cd efge|Ad~d2 Adfd|eaag edd^c|
Ad~d2 Adfd|eA (3B^cd efge|a3g eA (3B^cd|eaag edd^c:|

